img/logo-github-18.svg

<svg fill="none" height="32" viewBox="0 0 33 32" width="33" xmlns="http://www.w3.org/2000/svg" xmlns:xlink="http://www.w3.org/1999/xlink"><clipPath id="a"><path d="m.773438.001953h32v32h-32z"/></clipPath><g clip-path="url(#a)"><path clip-rule="evenodd" d="m16.7245.00195312c-8.80733 0-15.951062 7.14372688-15.951062 15.95104688 0 7.0459 4.599392 13.0153 10.862362 15.1682.7829.0979 1.0765-.3914 1.0765-.7829 0-.3914 0-1.37 0-2.74-4.40369.9786-5.38229-2.1529-5.38229-2.1529-.68501-1.8593-1.76147-2.3486-1.76147-2.3486-1.46789-.9786.09786-.9786.09786-.9786 1.56575.0978 2.44649 1.6636 2.44649 1.6636 1.46789 2.4465 3.71861 1.7614 4.59941 1.37.0978-1.0765.5871-1.7615.9786-2.1529-3.523-.3914-7.24162-1.7615-7.24162-7.9266 0-1.7615.58715-3.1315 1.66361-4.3058-.09786-.2936-.68502-1.95721.19572-4.11011 0 0 1.37003-.39144 4.40369 1.66361 1.2721-.39144 2.6422-.4893 4.0122-.4893s2.7401.19572 4.0122.4893c3.0337-2.05505 4.4037-1.66361 4.4037-1.66361.8807 2.1529.2936 3.81651.1957 4.20791.9786 1.0765 1.6636 2.5444 1.6636 4.3058 0 6.1652-3.7186 7.4374-7.2416 7.8288.5872.4893 1.0765 1.4679 1.0765 2.9358v4.4036c0 .3915.2936.8808 1.0765.7829 6.3608-2.1529 10.8623-8.1223 10.8623-15.1682-.0978-8.80732-7.2416-15.95104688-16.0489-15.95104688z" fill="#fff" fill-rule="evenodd"/></g></svg>

<svg width="33" height="32" viewBox="0 0 33 32" fill="none" xmlns="http://www.w3.org/2000/svg">
<g clip-path="url(#clip0_3470_10752)">
<path fill-rule="evenodd" clip-rule="evenodd" d="M16.7245 0.00195312C7.91717 0.00195312 0.773438 7.14568 0.773438 15.953C0.773438 22.9989 5.37283 28.9683 11.6358 31.1212C12.4187 31.2191 12.7123 30.7298 12.7123 30.3383C12.7123 29.9469 12.7123 28.9683 12.7123 27.5983C8.30861 28.5769 7.33001 25.4454 7.33001 25.4454C6.645 23.5861 5.56854 23.0968 5.56854 23.0968C4.10065 22.1182 5.6664 22.1182 5.6664 22.1182C7.23215 22.216 8.11289 23.7818 8.11289 23.7818C9.58078 26.2283 11.8315 25.5432 12.7123 25.1518C12.8101 24.0753 13.2994 23.3903 13.6909 22.9989C10.1679 22.6075 6.44928 21.2374 6.44928 15.0723C6.44928 13.3108 7.03643 11.9408 8.11289 10.7665C8.01503 10.4729 7.42787 8.80929 8.30861 6.65639C8.30861 6.65639 9.67864 6.26495 12.7123 8.32C13.9844 7.92856 15.3545 7.8307 16.7245 7.8307C18.0945 7.8307 19.4646 8.02642 20.7367 8.32C23.7704 6.26495 25.1404 6.65639 25.1404 6.65639C26.0211 8.80929 25.434 10.4729 25.3361 10.8643C26.3147 11.9408 26.9997 13.4087 26.9997 15.1701C26.9997 21.3353 23.2811 22.6075 19.7581 22.9989C20.3453 23.4882 20.8346 24.4668 20.8346 25.9347C20.8346 28.0876 20.8346 29.7512 20.8346 30.3383C20.8346 30.7298 21.1282 31.2191 21.9111 31.1212C28.2719 28.9683 32.7734 22.9989 32.7734 15.953C32.6756 7.14568 25.5318 0.00195312 16.7245 0.00195312Z" fill="white"/>
</g>
<defs>
<clipPath id="clip0_3470_10752">
<rect width="32" height="32" fill="white" transform="translate(0.773438 0.00195312)"/>
</clipPath>
</defs>
</svg>
